X: 0
T: Lully, Lully, Lu
Z: Latin 15th Century
Z: Sequenced by Douglas D. Anderson
Z: Public Domain
L: 1/4
M: 4/4
V: P1 name="Staff"
%%MIDI program 1 -1
K: F
[V: P1]  F G A G | F A c d | f e e/c/ d | d2 c2 | e d c3/ B/ | A G d2 | e d c/B/ A | A2 G2 | A B c B | A G A F | E F G/A/ G | G2 F2|]

